X: 38133
T: Sporting Days Of Easter, The
R: reel
M: 4/4
K: Dmixolydian
|:d2cA GE~E2|ABGE ABcA|d2cA GE E2|1 ABGE d2e:|2 ABGE D3E||
G2AB c2Bc|dge2 dBcA|G2AB cBcA|dcBA GEED|
G2AB c2Bc|dge2 d2cB|g3e fded|ABcB d2ed||
c3d eggb|~a2ag egge|cBcd eg~g2|abge d2ed|
c2cd egg2|a2ag efge|fged cAAG|ABcB d4||

